!!!!SEGMENT: pl-stab--26a--009_nowakiewicz-kazimierz--missa-in-d-agnus-dei.krn
!!!cenid: 18xx:3519
!!!COM: Nowakiewicz, Kazimierz
!!!COM-rismid: pe30020309
!!!CDT: <1800->1824
!!!CNT: Polish
!!!OPR: Missa in D
!!!OTL: Agnus Dei
!!!OMV: 009
!!!PDT: 1810
!!!AGN:
!!!SMS-siglum: PL-STAb
!!!SMS-shelfmark: 26a
!!!SMS-shelfwork: M
!!!SMS-variant:
!!!SMS-altvar:
!!!NIFC-rismid: 301050704
!!!URL-scan: https://repozytorium.nifc.pl/islandora/object/pl-stab%3A3636/datastream/PDF/view
!!!ONB-nifc: UWAGA: części Mszy: 1. Kyrie, 2. Gloria, 3. Credo, 4. Et incarnatus, 5. Et resurrexit, 6. Sanctus, 7. Benedictus, 8. Osanna, 9. Agnus Dei, 10. Dona nobis
!!!key:
**kern	**fba	**dynam	**kern	**kern	**dynam	**kern	**kern	**text	**kern	**text	**kern	**text	**dynam	**kern	**text	**dynam	**kern	**dynam	**kern	**dynam	**kern	**dynam	**kern	**dynam
*part12	*part12	*part12	*part11	*part10	*part10	*part9	*part8	*part8	*part7	*part7	*part6	*part6	*part6	*part5	*part5	*part5	*part4	*part4	*part3	*part3	*part2	*part2	*part1	*part1
*staff12	*staff12	*	*staff11	*staff10	*	*staff9	*staff8	*staff8	*staff7	*staff7	*staff6	*staff6	*	*staff5	*staff5	*	*staff4	*	*staff3	*	*staff2	*	*staff1	*
*Iorgan	*	*	*Iempty	*Iempty	*	*Ivioln	*Ibass	*	*Itenor	*	*Ialto	*	*	*Ivox	*	*	*Iempty	*	*Iempty	*	*Ioboe	*	*Ioboe	*
*I"Organo	*	*	*I"Alto viola	*I"Violino Secundo 1mo	*	*I"Violino Primo	*I"Basso	*	*I"Tenore	*	*I"Alto	*	*	*I"Canto	*	*	*I"Clarino Secundo et Cornu	*	*I"Clarino Primo et Cornu	*	*I"Oboe Secundo	*	*I"Oboe Primo	*
*I'Org.	*	*	*I'vla	*I'vl 2	*	*I'vl 1	*I'B.	*	*I'T.	*	*I'A	*	*	*I'C	*	*	*I'cl 2 et cor	*	*I'cl 1 et cor	*	*I'ob 2	*	*I'ob 1	*
*clefF4	*	*	*clefC3	*clefG2	*	*clefG2	*clefF4	*	*clefC4	*	*clefC3	*	*	*clefC1	*	*	*clefG2	*	*clefG2	*	*clefG2	*	*clefG2	*
*	*	*	*	*	*	*	*	*	*	*	*	*	*	*	*	*	*ITrd-1c-2	*	*ITrd-1c-2	*	*	*	*	*
*k[b-]	*	*	*k[b-]	*k[b-]	*	*k[b-]	*k[b-]	*	*k[b-]	*	*k[b-]	*	*	*k[b-]	*	*	*k[f#c#]	*	*k[f#c#]	*	*k[b-]	*	*k[b-]	*
*d:	*	*	*d:	*d:	*	*d:	*d:	*	*d:	*	*d:	*	*	*d:	*	*	*d:	*	*d:	*	*d:	*	*d:	*
*M4/4	*	*	*M4/4	*M4/4	*	*M4/4	*M4/4	*	*M4/4	*	*M4/4	*	*	*M4/4	*	*	*M4/4	*	*M4/4	*	*M4/4	*	*M4/4	*
*met(c)	*	*	*met(c)	*met(c)	*	*met(c)	*met(c)	*	*met(c)	*	*met(c)	*	*	*met(c)	*	*	*met(c)	*	*met(c)	*	*met(c)	*	*met(c)	*
*	*	*	*	*	*below	*	*	*	*	*	*	*	*	*	*	*	*	*	*	*	*	*	*	*
=1	=1	=1	=1	=1	=1	=1	=1	=1	=1	=1	=1	=1	=1	=1	=1	=1	=1	=1	=1	=1	=1	=1	=1	=1
*	*	*	*tremolo	*tremolo	*	*	*	*	*	*	*	*	*	*	*	*	*	*	*	*	*	*	*	*
!	!	!	!	!	!	!	!	!	!	!	!	!	!	!	!	!	!	!	!	!	!	!	!LO:TX:t=P:problem:2\right:global	!
!	!	!	!	!	!	!	!	!	!	!	!	!	!	!	!	!	!LO:TX:a:t=adagio	!	!LO:TX:a:t=adagio	!	!	!	!LO:TX:a:B:t=Prestissimo	!
!LO:TX:a:t=adagio	!	!	!LO:TX:a:rj:t=adagio	!LO:TX:a:t=adagio	!	!LO:TX:t=P:problem:źródło wybrakowane	!LO:TX:a:t=adagio	!	!LO:TX:a:t=adagio	!	!LO:TX:a:t=adagio	!	!	!LO:TX:a:t=adagio	!	!	!LO:TX:a:t=in D.	!	!LO:TX:a:t=in D.	!LO:DY:t=f.	!LO:TX:a:t=adagio	!	!LO:TX:a:t=adagio	!
8D\	.	>	8A/L 8D/	8f/L 8d/	.	1ryy	0r	.	00r	.	00r	.	.	00r	.	.	4d/	f	4dd\	f	4.d/	fp >	4.dd\	>
4F\	.	]	8A/ 8D/	8f/ 8d/	.	.	.	.	.	.	.	.	.	.	.	.	.	.	.	.	.	.	.	.
.	.	.	8A/ 8D/	8f/ 8d/	.	.	.	.	.	.	.	.	.	.	.	.	4r	.	4r	.	.	.	.	.
8E\	.	.	8A/J 8D/	8f/J 8d/	.	.	.	.	.	.	.	.	.	.	.	.	.	.	.	.	8e/	.	8ee\	.
8D\	.	>	8A/L 8D/	8f/L 8d/	.	.	.	.	.	.	.	.	.	.	.	.	4d/	.	4dd\	.	4.f/	] >	4.ff\	] >
4A\	.	]	8A/ 8D/	8f/ 8d/	.	.	.	.	.	.	.	.	.	.	.	.	.	.	.	.	.	.	.	.
.	.	.	8A/ 8D/	8f/ 8d/	.	.	.	.	.	.	.	.	.	.	.	.	4r	.	4r	.	.	.	.	.
8D\	.	.	8A/J 8D/	8f/J 8d/	.	.	.	.	.	.	.	.	.	.	.	.	.	.	.	.	8d/	]]	8dd\	]]
=2	=2	=2	=2	=2	=2	=2	=2	=2	=2	=2	=2	=2	=2	=2	=2	=2	=2	=2	=2	=2	=2	=2	=2	=2
!	!	!	!	!	!	!	!	!	!	!	!	!	!	!	!	!	!	!	!	!	!	!	!	!LO:DY:t=for
8C#X\L	.	.	8A/L 8C#X/	16b-X/LL 16G/	.	1ryy	.	.	.	.	.	.	.	.	.	.	1r	.	1r	.	8a\L	.	8ee\L	f
.	.	.	.	16b-/ 16G/	.	.	.	.	.	.	.	.	.	.	.	.	.	.	.	.	.	.	.	.
8.B-\J	.	.	8A/ 8C#/	16b-/ 16G/	.	.	.	.	.	.	.	.	.	.	.	.	.	.	.	.	8ee\	.	8gg\	.
.	.	.	.	16b-/ 16G/	.	.	.	.	.	.	.	.	.	.	.	.	.	.	.	.	.	.	.	.
.	.	.	8A/ 8C#/	16b-X/ 16G/	.	.	.	.	.	.	.	.	.	.	.	.	.	.	.	.	8ee\	.	8gg\	.
16A\LL	.	.	.	16b-/ 16G/	.	.	.	.	.	.	.	.	.	.	.	.	.	.	.	.	.	.	.	.
16G\	.	.	8A/J 8C#/	16b-/ 16G/	.	.	.	.	.	.	.	.	.	.	.	.	.	.	.	.	8ee\J	.	8gg\J	.
16F\JJ	.	.	.	16b-/JJ 16G/	.	.	.	.	.	.	.	.	.	.	.	.	.	.	.	.	.	.	.	.
*	*	*	*	*	*	*	*	*	*	*	*	*	*	*	*	*	*	*	*	*	*2\right	*	*2\right	*
*	*	*	*	*	*	*	*	*	*	*	*	*	*	*	*	*	*	*	*	*	*tremolo	*	*tremolo	*
16E\LL	.	.	8A/L 8C#/	16b-X/LL 16G/	.	.	.	.	.	.	.	.	.	.	.	.	.	.	.	.	8ee'\L	.	8gg\L	.
16F\	.	.	.	16b-/ 16G/	.	.	.	.	.	.	.	.	.	.	.	.	.	.	.	.	.	.	.	.
16G\	.	.	8A/ 8C#/	16b-/ 16G/	.	.	.	.	.	.	.	.	.	.	.	.	.	.	.	.	8ee'\	.	8gg\	.
16F\JJ	.	.	.	16b-/ 16G/	.	.	.	.	.	.	.	.	.	.	.	.	.	.	.	.	.	.	.	.
16E/LL	.	.	8A/ 8C#/	16b-X/ 16G/	.	.	.	.	.	.	.	.	.	.	.	.	.	.	.	.	8ee'\	.	8gg\	.
16D/	.	.	.	16b-/ 16G/	.	.	.	.	.	.	.	.	.	.	.	.	.	.	.	.	.	.	.	.
16C#X/	.	.	8A/J 8C#/	16b-/ 16G/	.	.	.	.	.	.	.	.	.	.	.	.	.	.	.	.	8ee'\J	.	8gg\J	.
16E/JJ	.	.	.	16b-/JJ 16G/	.	.	.	.	.	.	.	.	.	.	.	.	.	.	.	.	.	.	.	.
*	*	*	*Xtremolo	*Xtremolo	*	*	*	*	*	*	*	*	*	*	*	*	*	*	*	*	*Xtremolo	*	*Xtremolo	*
=3	=3	=3	=3	=3	=3	=3	=3	=3	=3	=3	=3	=3	=3	=3	=3	=3	=3	=3	=3	=3	=3	=3	=3	=3
!	!	!	!	!	!	!	!LO:TX:a:t=Solo	!	!	!	!	!	!	!	!	!	!	!	!	!	!	!LO:DY:t=for	!	!
4D\	.	.	4A/ 4D/	4a/ 4d/	.	1ryy	4r	.	.	.	.	.	.	.	.	.	4d/	.	4dd\	.	4dd\	f	4ff\	.
4r	.	.	4r	4r	.	.	(16d\LL	A-	.	.	.	.	.	.	.	.	4r	.	4r	.	4r	.	4r	.
.	.	.	.	.	.	.	16A\J)	.	.	.	.	.	.	.	.	.	.	.	.	.	.	.	.	.
.	.	.	.	.	.	.	8A\J	-gnus	.	.	.	.	.	.	.	.	.	.	.	.	.	.	.	.
8r	.	.	8r	8r	.	.	4B-M\	De-	.	.	.	.	.	.	.	.	2r	.	2r	.	4gg\	pp	4bb-\	.
!	!	!LO:DY:t=p.	!	!	!	!	!	!	!	!	!	!	!	!	!	!	!	!	!	!	!	!	!	!
(8C#X/L	.	p	8C#X/L	(8g/L	.	.	.	.	.	.	.	.	.	.	.	.	.	.	.	.	.	.	.	.
8D/	.	.	8D/	8f/	.	.	8A\	-i	.	.	.	.	.	.	.	.	.	.	.	.	8ff\L	.	8aa\L	pp
8E/J)	.	.	8E/J	8e/J)	.	.	8G\	qui	.	.	.	.	.	.	.	.	.	.	.	.	8ee\J	.	8gg\J	.
!	!	!	!	!	!	!	!	!	!	!	!	!	!	!	!	!	!LO:LB:g=original	!	!	!	!	!	!	!
=4	=4	=4	=4	=4	=4	=4	=4	=4	=4	=4	=4	=4	=4	=4	=4	=4	=4	=4	=4	=4	=4	=4	=4	=4
*	*	*	*	*	*	*	*	*	*	*	*	*	*	*	*	*	*	*	*	*	*tremolo	*	*tremolo	*
8.D\L	.	f	40F/LLL	8.r	.	1ryy	16F\LL	tol-	.	.	.	.	.	.	.	.	8r	.	8r	.	8dd\L	.	8ff\L	f
.	.	.	40D/	.	.	.	.	.	.	.	.	.	.	.	.	.	.	.	.	.	.	.	.	.
.	.	.	40A/	.	.	.	.	.	.	.	.	.	.	.	.	.	.	.	.	.	.	.	.	.
.	.	.	.	.	.	.	16E\JJ	.	.	.	.	.	.	.	.	.	.	.	.	.	.	.	.	.
.	.	.	40D/	.	.	.	.	.	.	.	.	.	.	.	.	.	.	.	.	.	.	.	.	.
.	.	.	40A/JJJ	.	.	.	.	.	.	.	.	.	.	.	.	.	.	.	.	.	.	.	.	.
.	.	.	32D/LLL	.	.	.	8D\	-lis	.	.	.	.	.	.	.	.	8d/L	.	8dd\L	.	8dd\	.	8ff\	.
.	.	.	32A/	.	.	.	.	.	.	.	.	.	.	.	.	.	.	.	.	.	.	.	.	.
(32D\LL	.	.	32D/	32d/LLL	f	.	.	.	.	.	.	.	.	.	.	.	.	.	.	.	.	.	.	.
32E\JJJ)	.	.	32A/JJJ	32e/JJJ	.	.	.	.	.	.	.	.	.	.	.	.	.	.	.	.	.	.	.	.
*	*	*	*rep	*	*	*	*	*	*	*	*	*	*	*	*	*	*	*	*	*	*	*	*	*
!LO:LB;g=original	!	!	!	!	!	!	!	!	!	!	!	!	!	!	!	!	!	!	!	!	!	!	!	!
16F\LL	.	.	32D/LLL	16f/LL	.	.	4r	.	.	.	.	.	.	.	.	.	8d/	.	8dd\	.	8dd\	.	8ff\	.
.	.	.	32A/	.	.	.	.	.	.	.	.	.	.	.	.	.	.	.	.	.	.	.	.	.
(32F\L	.	.	32D/	(32f/L	.	.	.	.	.	.	.	.	.	.	.	.	.	.	.	.	.	.	.	.
32E\JJJ)	.	.	32A/JJJ	32e/JJJ)	.	.	.	.	.	.	.	.	.	.	.	.	.	.	.	.	.	.	.	.
*	*	*	*Xrep	*	*	*	*	*	*	*	*	*	*	*	*	*	*	*	*	*	*	*	*	*
*	*	*	*rep	*	*	*	*	*	*	*	*	*	*	*	*	*	*	*	*	*	*	*	*	*
16D\LL	.	.	32D/LLL	16d/LL	.	.	.	.	.	.	.	.	.	.	.	.	8d/	.	8dd\	.	8dd\	.	8ff\J	.
.	.	.	32A/	.	.	.	.	.	.	.	.	.	.	.	.	.	.	.	.	.	.	.	.	.
(32D\L	.	.	32D/	32d/L	.	.	.	.	.	.	.	.	.	.	.	.	.	.	.	.	.	.	.	.
32C#X\JJJ)	.	.	32A/JJJ	32c#X/JJJ	.	.	.	.	.	.	.	.	.	.	.	.	.	.	.	.	.	.	.	.
*	*	*	*Xrep	*	*	*	*	*	*	*	*	*	*	*	*	*	*	*	*	*	*	*	*Xtremolo	*
8D\	.	.	8D/	16d/LL	.	.	8r	.	.	.	.	.	.	.	.	.	8d/J	.	8dd\J	.	8dd\	.	8ff\L	.
.	.	.	.	16A/JJ	.	.	.	.	.	.	.	.	.	.	.	.	.	.	.	.	.	.	.	.
8r	.	.	8r	8r	.	.	8A\	pec-	.	.	.	.	.	.	.	.	8r	.	8r	.	8dd\J	.	8ff\J	.
*	*	*	*	*	*	*	*	*	*	*	*	*	*	*	*	*	*	*	*	*	*Xtremolo	*	*	*
4r	.	.	4r	4r	.	.	8F\	-ca-	.	.	.	.	.	.	.	.	4r	.	4r	.	4r	.	4r	.
.	.	.	.	.	.	.	8D\	-ta	.	.	.	.	.	.	.	.	.	.	.	.	.	.	.	.
=5	=5	=5	=5	=5	=5	=5	=5	=5	=5	=5	=5	=5	=5	=5	=5	=5	=5	=5	=5	=5	=5	=5	=5	=5
!	!	!	!	!	!	!	!LO:TX:t=P:problem:mixed beam	!	!	!	!	!	!	!	!	!	!	!	!	!	!	!	!	!
8.r	.	.	8r	8.r	.	1ryy	8C#X/L	mun-	0r	.	0r	.	.	0r	.	.	1r	.	1r	.	8r	.	8rg	.
.	.	.	32C#X/LLL	.	.	.	8B-\J	-di	.	.	.	.	.	.	.	.	.	.	.	.	8ee\	.	4bb-\	f
.	.	.	32G/	.	.	.	.	.	.	.	.	.	.	.	.	.	.	.	.	.	.	.	.	.
(32B-\LLL	.	.	32C#/	32b-/LLL	.	.	.	.	.	.	.	.	.	.	.	.	.	.	.	.	.	.	.	.
32A\JJJ)	.	.	32G/JJJ	32a/JJJ	.	.	.	.	.	.	.	.	.	.	.	.	.	.	.	.	.	.	.	.
*	*	*	*rep	*	*	*	*	*	*	*	*	*	*	*	*	*	*	*	*	*	*	*	*	*
16G\LL	.	.	32C#X/LLL	16g/LL	.	.	4r	.	.	.	.	.	.	.	.	.	.	.	.	.	4ee\	.	.	.
.	.	.	32G/	.	.	.	.	.	.	.	.	.	.	.	.	.	.	.	.	.	.	.	.	.
(32G\L	.	.	32C#/	(32g/L	.	.	.	.	.	.	.	.	.	.	.	.	.	.	.	.	.	.	.	.
32F\JJJ)	.	.	32G/JJJ	32f/JJJ)	.	.	.	.	.	.	.	.	.	.	.	.	.	.	.	.	.	.	.	.
*	*	*	*Xrep	*	*	*	*	*	*	*	*	*	*	*	*	*	*	*	*	*	*	*	*	*
*	*	*	*rep	*	*	*	*	*	*	*	*	*	*	*	*	*	*	*	*	*	*	*	*	*
16E\LL	.	.	32C#X/LLL	16e/LL	.	.	.	.	.	.	.	.	.	.	.	.	.	.	.	.	.	.	8bb-\	.
.	.	.	32G/	.	.	.	.	.	.	.	.	.	.	.	.	.	.	.	.	.	.	.	.	.
(32E\L	.	.	32C#/	(32e/L	.	.	.	.	.	.	.	.	.	.	.	.	.	.	.	.	.	.	.	.
32D\JJJ)	.	.	32G/JJJ	32d/JJJ)	.	.	.	.	.	.	.	.	.	.	.	.	.	.	.	.	.	.	.	.
*	*	*	*Xrep	*	*	*	*	*	*	*	*	*	*	*	*	*	*	*	*	*	*	*	*	*
!	!	!	!LO:LB:g=original	!LO:LB:g=original	!	!	!	!	!	!	!	!	!	!	!	!	!	!	!	!	!	!	!	!
8C#X/	.	.	8G/ 8C#/	16c#X/LL	.	.	8r	.	.	.	.	.	.	.	.	.	.	.	.	.	4ee\	.	4bb-\	.
.	.	.	.	16c#/JJ 16A/	.	.	.	.	.	.	.	.	.	.	.	.	.	.	.	.	.	.	.	.
*	*	*	*	*	*	*	*	*ij	*	*	*	*	*	*	*	*	*	*	*	*	*	*	*	*
8r	.	.	8r	8r	.	.	8B-\	pec-	.	.	.	.	.	.	.	.	.	.	.	.	.	.	.	.
!	!	!	!	!	!	!	!LO:TX:t=P:problem:mixed beam	!	!	!	!	!	!	!	!	!	!	!	!	!	!	!	!	!
4r	.	.	4r	4r	.	.	8A\L	-ca-	.	.	.	.	.	.	.	.	.	.	.	.	4r	.	4r	.
.	.	.	.	.	.	.	8C#X/J	-ta	.	.	.	.	.	.	.	.	.	.	.	.	.	.	.	.
=6	=6	=6	=6	=6	=6	=6	=6	=6	=6	=6	=6	=6	=6	=6	=6	=6	=6	=6	=6	=6	=6	=6	=6	=6
*	*	*	*	*tremolo	*	*	*	*	*	*	*	*	*	*	*	*	*	*	*	*	*	*	*	*
!	!	!	!	!	!	!	!	!	!	!	!	!	!	!	!	!	!	!	!	!LO:DY:t=f.	!	!	!	!
8D\	.	.	8A/ 8D/	8f/L 8d/	.	1ryy	8D\	mun-	.	.	.	.	.	.	.	.	4d/	.	4dd\	f	4.d/	>	4.dd\	>
4F\	.	.	4A/ 4D/	8f/ 8d/	.	.	8D\	-di	.	.	.	.	.	.	.	.	.	.	.	.	.	.	.	.
!	!	!	!	!	!	!	!LO:LB:g=original	!	!	!	!	!	!	!	!	!	!	!	!	!	!	!	!	!
*	*	*	*	*	*	*	*	*Xij	*	*	*	*	*	*	*	*	*	*	*	*	*	*	*	*
.	.	.	.	8f/ 8d/	.	.	4r	.	.	.	.	.	.	.	.	.	4r	.	4r	.	.	.	.	.
8E\	.	.	4A/ 4D/	8f/J 8d/	.	.	.	.	.	.	.	.	.	.	.	.	.	.	.	.	8e/	.	8ee\	.
!	!	!	!	!	!	!	!	!	!	!	!	!	!	!	!	!	!	!	!	!	!LO:LB:g=original	!	!	!
8D\	.	.	.	8f/L 8d/	.	.	2r	.	.	.	.	.	.	.	.	.	4d/	.	4dd\	.	4.f/	] >	4.ff\	] >
4A\	.	.	4A/ 4D/	8f/ 8d/	.	.	.	.	.	.	.	.	.	.	.	.	.	.	.	.	.	.	.	.
.	.	.	.	8f/ 8d/	.	.	.	.	.	.	.	.	.	.	.	.	4r	.	4r	.	.	.	.	.
8D\	.	.	8A/ 8D/	8f/J 8d/	.	.	.	.	.	.	.	.	.	.	.	.	.	.	.	.	8d/	]]	8dd\	]]
!	!	!	!	!	!	!	!	!	!	!	!	!	!	!	!	!	!	!	!LO:LB:g=original	!	!	!	!LO:LB:g=original	!
=7	=7	=7	=7	=7	=7	=7	=7	=7	=7	=7	=7	=7	=7	=7	=7	=7	=7	=7	=7	=7	=7	=7	=7	=7
*	*	*	*tremolo	*	*	*	*	*	*	*	*	*	*	*	*	*	*	*	*	*	*	*	*	*
!	!	!	!	!	!	!	!	!	!	!	!	!	!	!	!	!	!	!	!	!	!	!	!	!LO:DY:t=f.
8C#X\L	.	.	16A/LL 16C#X/	16b-/LL 16g/	f	1ryy	1r	.	1r	.	1r	.	.	1r	.	.	1r	.	1r	.	8a\L	f	8ee\L	f
.	.	.	16A/ 16C#/	16b-/ 16g/	.	.	.	.	.	.	.	.	.	.	.	.	.	.	.	.	.	.	.	.
8.B-\J	.	.	16A/ 16C#/	16b-/ 16g/	.	.	.	.	.	.	.	.	.	.	.	.	.	.	.	.	8ee\	.	8gg\	.
.	.	.	16A/ 16C#/	16b-/ 16g/	.	.	.	.	.	.	.	.	.	.	.	.	.	.	.	.	.	.	.	.
.	.	.	16A/ 16C#/	16b-/ 16g/	.	.	.	.	.	.	.	.	.	.	.	.	.	.	.	.	8ee\	.	8gg\	.
16A\LL	.	.	16A/ 16C#/	16b-/ 16g/	.	.	.	.	.	.	.	.	.	.	.	.	.	.	.	.	.	.	.	.
16G\	.	.	16A/ 16C#/	16b-/ 16g/	.	.	.	.	.	.	.	.	.	.	.	.	.	.	.	.	8ee\J	.	8gg\J	.
16F\JJ	.	.	16A/ 16C#/	16b-/JJ 16g/	.	.	.	.	.	.	.	.	.	.	.	.	.	.	.	.	.	.	.	.
*	*	*	*	*	*	*	*	*	*	*	*	*	*	*	*	*	*	*	*	*	*tremolo	*	*tremolo	*
16G\LL	.	.	16A/ 16C#/	16b-/LL 16g/	.	.	.	.	.	.	.	.	.	.	.	.	.	.	.	.	8ee\L	.	8gg\L	.
16F\	.	.	16A/ 16C#/	16b-/ 16g/	.	.	.	.	.	.	.	.	.	.	.	.	.	.	.	.	.	.	.	.
16E\	.	.	16A/ 16C#/	16b-/ 16g/	.	.	.	.	.	.	.	.	.	.	.	.	.	.	.	.	8ee\	.	8gg\	.
16D\JJ	.	.	16A/ 16C#/	16b-/ 16g/	.	.	.	.	.	.	.	.	.	.	.	.	.	.	.	.	.	.	.	.
(16C#/LL	.	.	16A/ 16C#/	16b-/ 16g/	.	.	.	.	.	.	.	.	.	.	.	.	.	.	.	.	8ee\	.	8gg\	.
16AA/	.	.	16A/ 16C#/	16b-/ 16g/	.	.	.	.	.	.	.	.	.	.	.	.	.	.	.	.	.	.	.	.
16BB-/	.	.	16A/ 16C#/	16b-/ 16g/	.	.	.	.	.	.	.	.	.	.	.	.	.	.	.	.	8ee\J	.	8gg\J	.
16C#/JJ)	.	.	16A/JJ 16C#/	16b-/JJ 16g/	.	.	.	.	.	.	.	.	.	.	.	.	.	.	.	.	.	.	.	.
*	*	*	*	*Xtremolo	*	*	*	*	*	*	*	*	*	*	*	*	*	*	*	*	*Xtremolo	*	*Xtremolo	*
=8	=8	=8	=8	=8	=8	=8	=8	=8	=8	=8	=8	=8	=8	=8	=8	=8	=8	=8	=8	=8	=8	=8	=8	=8
!	!	!	!	!	!	!	!	!	!	!	!	!	!LO:DY:a	!	!	!LO:DY:a:t=p.	!	!LO:DY:t=f.	!	!LO:DY:t=f.	!	!	!	!
4D\	.	.	8D/L	8a/L 8d/	p	1ryy	4.D\	a-	4.d\	A	4.f\	A-	p	4.a\	A-	p	4d/	f	4dd\	f	4dd\	.	4ff\	.
.	.	.	8D/	8A/	.	.	.	.	.	.	.	.	.	.	.	.	.	.	.	.	.	.	.	.
4r	.	.	8D/	8A/	.	.	.	.	.	.	.	.	.	.	.	.	4r	.	4r	.	4r	.	4r	.
.	.	.	8D/	8A/J	.	.	8D\	-gnus	8d\	gnus	8f\	-gnus	.	8a\	-gnus	.	.	.	.	.	.	.	.	.
*	*	*	*	*tremolo	*	*	*	*	*	*	*	*	*	*	*	*	*	*	*	*	*	*	*	*
!	!	!	!	!	!	!	!	!	!	!	!	!	!	!	!	!	!	!LO:DY:t=p.	!	!LO:DY:t=p.	!	!	!	!
4d\	.	.	8D/	8A/L	.	.	4D\	De-	(8d\L	De-	4f\	De-	.	4a\	De-	.	4d/	p	4dd\	p	2r	.	8r	.
!	!	!	!	!	!	!	!	!	!	!	!	!	!	!	!	!	!	!	!	!	!	!	!	!LO:DY:b:t=p.
.	.	.	8D/	8A/	.	.	.	.	8A\J)	.	.	.	.	.	.	.	.	.	.	.	.	.	8a/L	p
4r	.	.	8D/	8A/	.	.	8D\	-i	8d\	-i	8f\	-i	.	8a\	-i	.	4r	.	4r	.	.	.	8dd/	.
.	.	.	8D/J	8A/J	.	.	8D\	qui	8f\	qui	8f\	qui	.	8a\	qui	.	.	.	.	.	.	.	8ff/J	.
*	*	*	*Xtremolo	*Xtremolo	*	*	*	*	*	*	*	*	*	*	*	*	*	*	*	*	*	*	*	*
!LO:LB:g=original	!	!	!	!	!	!	!	!	!	!	!	!	!	!	!	!	!	!	!	!	!	!	!	!
=9	=9	=9	=9	=9	=9	=9	=9	=9	=9	=9	=9	=9	=9	=9	=9	=9	=9	=9	=9	=9	=9	=9	=9	=9
*	*	*	*	*	*	*	*2\right	*	*2\right	*	*2\right	*	*	*2\right	*	*	*	*	*2\right	*	*	*	*	*
!	!	!	!	!	!LO:HP:a	!	!	!	!	!	!	!	!LO:DY:a	!	!	!	!	!	!	!	!	!	!	!
4D\	.	.	2A/	(2f/	>	1ryy	2D\	tol-	2a\	tol-	2f\	tol-	>	(2dd\	tol-	.	2d/	>	2dd\	>	[2dd\	>	(2aa\	>
4r	.	.	.	.	.	.	.	.	.	.	.	.	.	.	.	.	.	.	.	.	.	.	.	.
!	!	!	!	!LO:TX:a:t=rytm	!	!	!	!	!	!	!	!	!	!	!	!	!	!	!	!	!	!	!	!
4d\	.	.	4d\	8d/)	]	.	4d\	-lis	4f\	-lis	4d\	-lis	]	4a\)	-lis	.	4d/	]	4dd\	]	4dd\]	]	4ff\)	]
.	.	.	.	8r	.	.	.	.	.	.	.	.	.	.	.	.	.	.	.	.	.	.	.	.
4r	.	.	4r	4r	.	.	4r	.	4r	.	4r	.	.	4r	.	.	4r	.	4r	.	4r	.	4r	.
=10	=10	=10	=10	=10	=10	=10	=10	=10	=10	=10	=10	=10	=10	=10	=10	=10	=10	=10	=10	=10	=10	=10	=10	=10
!	!	!	!	!	!LO:HP:a	!	!	!	!	!	!	!	!LO:DY:a	!	!	!LO:DY:a	!	!	!	!	!	!LO:DY:t=po	!	!LO:DY:b:t=po.
4G\	.	.	4b-\	(2G/	>	1ryy	4G\	pec-	4e\	pec-	4B-/	pec-	>	4d/	pec-	>	1r	.	1r	.	4dd\	p	4ee\	p
4r	.	.	8.b-\L	.	.	.	8.G\	-ca-	8.e\	-ca-	8.B-/L	-ca-	.	8.d/	-ca-	.	.	.	.	.	8.dd\L	.	8.ee\L	.
.	.	.	16b-\Jk	.	.	.	16G\	-ta	16e\	-ta	16B-/Jk	-ta	.	16d/	-ta	]	.	.	.	.	16dd\Jk	.	16ee\Jk	.
!	!	!	!	!LO:TX:a:t=rytm	!	!	!	!	!	!	!	!	!	!	!	!	!	!	!	!	!	!	!	!
4G\	.	.	4b-\	8G/)	]	.	4G\	mun-	4e\	mun-	4B-/	mun-	]	4d/	mun-	.	.	.	.	.	4dd\	.	4ee\	.
.	.	.	.	8r	.	.	.	.	.	.	.	.	.	.	.	.	.	.	.	.	.	.	.	.
4r	.	.	4b-\	4r	.	.	4G\	-di	4e\	-di	4B-/	-di	.	4d/	-di	.	.	.	.	.	4dd\	.	4ee\	.
=11	=11	=11	=11	=11	=11	=11	=11	=11	=11	=11	=11	=11	=11	=11	=11	=11	=11	=11	=11	=11	=11	=11	=11	=11
*	*	*	*2\right	*	*	*	*	*	*	*	*	*	*	*	*	*	*2\right	*	*	*	*	*	*	*
!	!	!	!	!	!	!	!	!	!	!	!	!	!LO:DY:a	!	!	!LO:DY:a	!	!LO:DY:t=for	!	!LO:DY:t=f.	!	!	!	!
4r	.	.	2cc#X\	4r	.	1ryy	2G\	a-	2c#X\	a-	2e\	a-	>	2b-\	a-	>	2gg\	f	2gg\	f	2ee\	>	2bb-\	>
!	!	!LO:HP:a	!	!	!LO:HP:a	!	!	!	!	!	!	!	!	!	!	!	!	!	!	!	!	!	!	!
(4C#X/	.	>	.	(4e/	>	.	.	.	.	.	.	.	.	.	.	.	.	.	.	.	.	.	.	.
8D/)	.	]	4dd\	8f/)	]	.	4F\	-gnus	4d\	-gnus	4f\	-gnus	]	4a\	-gnus	]	2r	.	2r	.	4ff\	.	4aa\	.
8r	.	.	.	8r	.	.	.	.	.	.	.	.	.	.	.	.	.	.	.	.	.	.	.	.
8r	.	.	4b-X\	8r	.	.	4c#X\	De-	4e\	De-	4b-\	.	.	4g\	De-	>]	.	.	.	.	4ee\	]	4gg\	]
!	!	!	!	!	!LO:HP:a	!	!	!	!	!	!	!	!	!	!	!	!	!	!	!	!	!	!	!
(8E\	.	>]	.	(8b-\	>]	.	.	.	.	.	.	.	.	.	.	.	.	.	.	.	.	.	.	.
=12	=12	=12	=12	=12	=12	=12	=12	=12	=12	=12	=12	=12	=12	=12	=12	=12	=12	=12	=12	=12	=12	=12	=12	=12
8D\)	.	.	4a\	8a\)	.	1ryy	4d\	-i	4d\	-i	4a\	De-	.	4f/	-i	.	4d/	.	4dd\	.	4dd\	.	4ff\	.
8r	.	.	.	8r	.	.	.	.	.	.	.	.	.	.	.	.	.	.	.	.	.	.	.	.
!	!	!	!	!	!	!	!	!	!	!	!	!	!	!	!	!LO:DY:a:t=po	!	!	!	!	!	!	!	!
4D\	.	.	4r	4d/ 4A/	.	.	8.D\	qui	8.A\L	qui	8.dd\	-i	.	8.ff\L	qui	p	4r	.	4r	.	4r	.	4r	.
.	.	.	.	.	.	.	16D\	tol-	16A\Jk	.	16dd\	qui	p	16ff\Jk	.	.	.	.	.	.	.	.	.	.
!	!	!	!	!	!	!	!	!	!	!	!	!	!	!LO:LB:g=original	!	!	!	!	!	!	!	!	!	!
4Cn/	.	.	2A/	4e-X/ 4c/	.	.	4A\	-lis	4cn\	tol-	4dd#X\	tol-	.	4ff\	tol-	.	2r	.	2r	.	4dd#X\	.	4ff\	.
!	!	!	!	!	!	!	!	!	!	!	!LO:LB:g=original	!	!	!	!	!	!	!	!	!	!	!	!	!
4C/	.	.	.	4e-/ 4c/	.	.	8.A\	pec-	8.c\	-lis	8.dd#X\L	-lis	.	8.ff\L	-lis	.	.	.	.	.	4r	.	4r	.
.	.	.	.	.	.	.	16A\	-ca-	16c\	pec-	16dd#\Jk	pec-	.	16ff\Jk	pec-	.	.	.	.	.	.	.	.	.
!	!	!	!	!LO:LB:g=original	!	!	!LO:LB:g=original	!	!LO:LB:g=original	!	!	!	!	!	!	!	!	!	!	!	!	!	!	!
=13	=13	=13	=13	=13	=13	=13	=13	=13	=13	=13	=13	=13	=13	=13	=13	=13	=13	=13	=13	=13	=13	=13	=13	=13
4r	.	.	4B-/	4r	.	1ryy	2B-X\	-ta	2B-X\	-ca-	2ddn\	-ca-	.	2ff\	-ca-	.	2r	.	2r	.	4ddn\	.	4ff\	.
4BB-/	.	.	4r	4d/	.	.	.	.	.	.	.	.	.	.	.	.	.	.	.	.	4r	.	4r	.
!	!	!	!	!	!	!	!	!	!	!	!	!	!LO:DY:a	!	!	!	!	!	!	!	!	!	!	!
4r	.	.	2bn\	4r	.	.	2Bn\	.	2a-X\	-ta	2dd\	-ta	>]	2ff\	-ta	>]	2d/	.	2dd\	.	2g#X/	>]	2ff\	.
(4BBn/	.	.	.	(4d/	.	.	.	.	.	.	.	.	.	.	.	.	.	.	.	.	.	.	.	.
=14	=14	=14	=14	=14	=14	=14	=14	=14	=14	=14	=14	=14	=14	=14	=14	=14	=14	=14	=14	=14	=14	=14	=14	=14
!	!	!	!	!	!	!	!	!	!	!	!	!	!	!	!	!	!LO:TX:a:t=1	!	!LO:TX:a:t=1	!	!	!	!	!
*	*	*	*	*	*	*	*	*	*	*ij	*	*	*	*	*ij	*	*	*	*	*	*	*	*	*
2C/)	.	.	4ccn\	4f/)	.	1ryy	4cn\	pec-	4f\	pec-	4a\	pec-	.	4aa\	pec-	.	1r	.	1r	.	4f/	.	4aa\	.
.	.	.	4r	4r	.	.	8.c\L	-ca-	8.f\	-ca-	8.a\L	-ca-	.	8.gg\L	-ca-	.	.	.	.	.	4r	.	8.gg\L	.
.	.	.	.	.	.	.	16c\Jk	-ta	16f\	-ta	16a\Jk	-ta	.	16ff\Jk	-ta	.	.	.	.	.	.	.	16ff\Jk	.
*	*	*	*tremolo	*tremolo	*	*	*	*	*	*Xij	*	*	*	*	*Xij	*	*	*	*	*	*	*	*	*
4r	.	.	8g\L	8e/L 8B-/	.	.	2C/	mun-	2g\	mun-	2b-X\	mun-	.	8ee\L	mun-	.	.	.	.	.	2b-X^\	.	8ee\L	.
.	.	.	8c\	8e/ 8B-/	.	.	.	.	.	.	.	.	.	8cc\	.	.	.	.	.	.	.	.	8cc\	.
4C/	.	.	8g\	8e/ 8B-/	.	.	.	.	.	.	.	.	.	8dd\	.	.	.	.	.	.	.	.	8dd\	.
.	.	.	8c\J	8e/J 8B-/	.	.	.	.	.	.	.	.	.	8ee\J	.	.	.	.	.	.	.	.	8ee\J	.
*	*	*	*Xtremolo	*Xtremolo	*	*	*	*	*	*	*	*	*	*	*	*	*	*	*	*	*	*	*	*
!	!	!	!LO:LB:g=original	!	!	!	!	!	!	!	!	!	!	!	!	!	!	!	!	!	!LO:LB:g=original	!	!LO:LB:g=original	!
=15	=15	=15	=15	=15	=15	=15	=15	=15	=15	=15	=15	=15	=15	=15	=15	=15	=15	=15	=15	=15	=15	=15	=15	=15
2FF/	.	.	2F;/	2f/ 2A/	.	1ryy	2F;\	-di	1c\;	-di	2a;\	-di	.	1ff\;	-di	.	1r;	.	1r;	.	2a/	.	2ff\	.
2r;	.	.	2r	2r;	.	.	2r	.	.	.	2r	.	.	.	.	.	.	.	.	.	2r;	.	2r;	.
=16	=16	=16	=16	=16	=16	=16	=16	=16	=16	=16	=16	=16	=16	=16	=16	=16	=16	=16	=16	=16	=16	=16	=16	=16
4AA/	.	f	4A/	4a/ 4A/	f	1ryy	0r	.	1r	.	1r	.	.	1r	.	.	4a/	f	4aa\	.	2r	.	2r	.
8.BB-/L	.	.	8.B-/L	8.b-/L	.	.	.	.	.	.	.	.	.	.	.	.	4r	.	4r	.	.	.	.	.
16BB-/Jk	.	.	16B-/Jk	16b-/Jk	.	.	.	.	.	.	.	.	.	.	.	.	.	.	.	.	.	.	.	.
4CC#X/	.	.	4C#X/	4c#X^>/	.	.	.	.	.	.	.	.	.	.	.	.	(4ee\	f	(4gg\	.	(4gg\	>	4bb-\	>
16DD/LL	.	.	16D/LL	16d/LL	.	.	.	.	.	.	.	.	.	.	.	.	8dd\)	.	8aa\)	.	8ff\)	]	8aa\	.
(32EE/L	.	.	(32E/L	32e/L	.	.	.	.	.	.	.	.	.	.	.	.	.	.	.	.	.	.	.	.
32FF/JJJ	.	.	32F/JJJ	(32f/JJJ	.	.	.	.	.	.	.	.	.	.	.	.	.	.	.	.	.	.	.	.
32GG/LLL	.	.	32G/LLL)	32g/LLL	.	.	.	.	.	.	.	.	.	.	.	.	8r	.	8r	.	8r	.	8r	]
32AA/	.	.	32A/	32a/	.	.	.	.	.	.	.	.	.	.	.	.	.	.	.	.	.	.	.	.
32BB-/	.	.	32B-/	32b-/	.	.	.	.	.	.	.	.	.	.	.	.	.	.	.	.	.	.	.	.
32C#X/JJJ)	.	.	32c#X/JJJ	32cc#/JJJ)	.	.	.	.	.	.	.	.	.	.	.	.	.	.	.	.	.	.	.	.
!LO:LB:g=original	!	!	!	!	!	!	!	!	!	!	!	!	!	!	!	!	!	!	!	!	!	!	!	!
=17	=17	=17	=17	=17	=17	=17	=17	=17	=17	=17	=17	=17	=17	=17	=17	=17	=17	=17	=17	=17	=17	=17	=17	=17
!	!	!	!	!	!	!	!	!	!	!	!	!	!LO:DY:b:rj:t=for	!	!	!LO:DY:b:rj:t=for	!	!	!	!	!	!	!	!
8D\	.	.	8d\	8dd\	.	1ryy	.	.	4f\	Mi-	4a:\	Mi-	f	4dd\	Mi-	f	00r	.	00r	.	00r	.	00r	.
8r	.	.	8r	8r	.	.	.	.	.	.	.	.	.	.	.	.	.	.	.	.	.	.	.	.
4r	.	.	4r	4r	.	.	.	.	8e\L	-se-	8g\L	-se-	.	8cc#X\	-se-	.	.	.	.	.	.	.	.	.
.	.	.	.	.	.	.	.	.	8d\J	.	8f\J	.	.	8b-\	.	.	.	.	.	.	.	.	.	.
!	!	!	!	!	!LO:HP:a	!	!	!	!	!	!	!	!LO:DY:a	!	!	!	!	!	!	!	!	!	!	!
2r	.	.	4d\	((4f/	>	.	.	.	4d\	-re-	4f\	-re-	>	4b-^\	-re-	.	.	.	.	.	.	.	.	.
.	.	.	8c#X\	8e/))	]	.	.	.	4c#X\	-re	4e\	-re	]]	4a\	-re	.	.	.	.	.	.	.	.	.
.	.	.	8r	8r	.	.	.	.	.	.	.	.	.	.	.	.	.	.	.	.	.	.	.	.
=18	=18	=18	=18	=18	=18	=18	=18	=18	=18	=18	=18	=18	=18	=18	=18	=18	=18	=18	=18	=18	=18	=18	=18	=18
1r	.	.	8r	8r	.	1ryy	1r	.	8Bn\L	no-	8d\L	no-	.	8g#X/L	no-	.	.	.	.	.	.	.	.	.
!	!	!	!	!	!LO:HP:a	!	!	!	!	!	!	!	!	!	!	!	!	!	!	!	!	!	!	!
.	.	.	8b-\L	(8dd\L	>	.	.	.	8B-X\J	-bis	8d\J	-bis	.	8gn/J	-bis	.	.	.	.	.	.	.	.	.
.	.	.	8a\J	8cc#X\J)	]	.	.	.	8A\L	mi-	8cc#X\	mi-	.	8ff#X\L	mi-	.	.	.	.	.	.	.	.	.
.	.	.	8r	8r	.	.	.	.	8g#X\J	se-	8ccn\	-se-	.	8ffn\J	.	.	.	.	.	.	.	.	.	.
.	.	.	8r	8r	.	.	.	.	4.gn\	-re-	4.b-\	-re-	.	4ff\	-se-	.	.	.	.	.	.	.	.	.
.	.	.	4g\	4b-^\	.	.	.	.	.	.	.	.	.	.	.	.	.	.	.	.	.	.	.	.
.	.	.	.	.	.	.	.	.	.	.	.	.	.	8ee\	-re-	.	.	.	.	.	.	.	.	.
.	.	.	8r	8r	.	.	.	.	8f\	-re	8a\	-re	.	8dd\	-re	.	.	.	.	.	.	.	.	.
!	!	!	!	!LO:LB:g=original	!	!	!	!	!	!	!	!	!	!LO:LB:g=original	!	!	!	!	!	!	!	!	!	!
=19	=19	=19	=19	=19	=19	=19	=19	=19	=19	=19	=19	=19	=19	=19	=19	=19	=19	=19	=19	=19	=19	=19	=19	=19
2r	.	.	8r	8r	.	1ryy	2r	.	8e\L	no-	8g\L	no-	.	8cc#X\	no-	.	.	.	.	.	.	.	.	.
.	.	.	8d/L	8f/L	.	.	.	.	8d\	.	8f\	.	.	8b-\L	.	.	.	.	.	.	.	.	.	.
.	.	.	8c#X/	8e/	.	.	.	.	8c#X\	.	8e\	.	.	8a\	.	.	.	.	.	.	.	.	.	.
.	.	.	8Bn/J	8d/J	.	.	.	.	8Bn\J	.	8d\J	.	.	8g#X\J	.	.	.	.	.	.	.	.	.	.
!	!	!LO:DY:t=ppp.	!	!	!	!	!	!	!	!	!	!	!	!	!	!	!	!	!	!	!	!	!	!
8A\L	.	ppp	2c#X/	2e/	.	.	8A\	Mi-	2d\	-bis	2e\	-bis	.	2a\	-bis	.	.	.	.	.	.	.	.	.
8G\	.	.	.	.	.	.	8G\	-se-	.	.	.	.	.	.	.	.	.	.	.	.	.	.	.	.
8F\	.	.	.	.	.	.	8F\	-re-	.	.	.	.	.	.	.	.	.	.	.	.	.	.	.	.
8E\J	.	.	.	.	.	.	8E\	-re	.	.	.	.	.	.	.	.	.	.	.	.	.	.	.	.
!	!	!	!	!	!	!	!	!	!	!	!LO:LB:g=original	!	!	!	!	!	!	!	!	!	!	!	!	!
=20	=20	=20	=20	=20	=20	=20	=20	=20	=20	=20	=20	=20	=20	=20	=20	=20	=20	=20	=20	=20	=20	=20	=20	=20
*2\right	*	*	*	*	*	*	*	*	*	*	*	*	*	*	*	*	*	*	*	*	*	*	*	*
!	!	!	!LO:TX:a:t=2	!LO:TX:a:t=2	!	!	!	!	!	!	!	!	!	!	!	!	!	!	!	!	!	!	!	!
(2D\	.	.	0r	0r	.	1ryy	4D\	no-	8.A\	mi-	8d\L	mi-	.	8fn/	mi-	.	.	.	.	.	.	.	.	.
.	.	.	.	.	.	.	.	.	.	.	8d\J	-se-	.	8f/	-se-	.	.	.	.	.	.	.	.	.
.	.	.	.	.	.	.	.	.	16A\	-se-	.	.	.	.	.	.	.	.	.	.	.	.	.	.
.	.	.	.	.	.	.	4d\	-bis	8A\	-re-	8.d\	-re-	.	8.f/	-re-	.	.	.	.	.	.	.	.	.
.	.	.	.	.	.	.	.	.	8A\	-re	.	.	.	.	.	.	.	.	.	.	.	.	.	.
.	.	.	.	.	.	.	.	.	.	.	16d\	-re	.	16f/	-re	.	.	.	.	.	.	.	.	.
2D\)	.	.	.	.	.	.	4cn\	no-	4A\	no-	4d\	no-	.	4f#X/	no-	.	.	.	.	.	.	.	.	.
.	.	.	.	.	.	.	8.B-\L	-bis	8.G\	.	4d\	-bis	.	8.g/L	-bis	.	.	.	.	.	.	.	.	.
.	.	.	.	.	.	.	16A\Jk	.	16A\	-bis	.	.	.	16a/Jk	.	.	.	.	.	.	.	.	.	.
!	!	!	!	!	!	!	!	!	!LO:LB:g=original	!	!	!	!	!	!	!	!	!	!	!	!	!	!	!
=21	=21	=21	=21	=21	=21	=21	=21	=21	=21	=21	=21	=21	=21	=21	=21	=21	=21	=21	=21	=21	=21	=21	=21	=21
(2D\	.	.	.	.	.	1ryy	8G\	mi-	8d\	mi-	8g\	mi-	.	8b-\L	Mi-	.	1r	.	1r	.	1r	.	1r	.
.	.	.	.	.	.	.	8A\	-se-	8d\	-se-	8f\	-se-	.	8a\J	.	.	.	.	.	.	.	.	.	.
.	.	.	.	.	.	.	8B-\	-re-	8d\	-re-	8e\	-re-	.	8g\L	-se-	.	.	.	.	.	.	.	.	.
.	.	.	.	.	.	.	8A\	-re	8d\	-re	8f\	-re	.	8a\J	re	.	.	.	.	.	.	.	.	.
4D\)	.	.	.	.	.	.	4G\	no-	4d\	no-	4g\	no-	.	4b-\	-re	.	.	.	.	.	.	.	.	.
(4GG#X/	.	.	.	.	.	.	4G#X\	.	4f\	.	4bn\	.	.	4dd^\	no-	.	.	.	.	.	.	.	.	.
=22	=22	=22	=22	=22	=22	=22	=22	=22	=22	=22	=22	=22	=22	=22	=22	=22	=22	=22	=22	=22	=22	=22	=22	=22
8AA/L)	.	.	4r	4r	.	1ryy	8A\L	-bis	4d\	-bis	4a\	-bis	.	4a\	-bis	.	4r	.	4r	.	4r	.	4r	.
8D/J	.	.	.	.	.	.	8D\J	.	.	.	.	.	.	.	.	.	.	.	.	.	.	.	.	.
!	!	!	!	!	!	!	!	!	!	!	!	!	!	!	!	!	!	!LO:DY:t=pp.	!	!	!	!	!	!
4r	.	.	8.F/L	8.d/L	.	.	4r	.	4r	.	4r	.	.	4r	.	.	4d/	pp	4dd\	.	4d/	.	4f/	.
.	.	.	16F/Jk	16d/Jk	.	.	.	.	.	.	.	.	.	.	.	.	.	.	.	.	.	.	.	.
4D\	.	.	4A/	4f/	.	.	2r	.	2r	.	2r	.	.	2r	.	.	4d/	.	4dd\	.	(4f/	.	(4a/	.
4r	.	.	8.F/L 8.E/	8.G/L	.	.	.	.	.	.	.	.	.	.	.	.	4r	.	4r	.	4c#X/)	.	4g/)	.
.	.	.	16F/Jk 16E/	16G/Jk	.	.	.	.	.	.	.	.	.	.	.	.	.	.	.	.	.	.	.	.
!	!	!	!LO:LB:g=original	!	!	!	!	!	!	!	!	!	!	!	!	!	!	!	!	!	!	!	!	!
=23	=23	=23	=23	=23	=23	=23	=23	=23	=23	=23	=23	=23	=23	=23	=23	=23	=23	=23	=23	=23	=23	=23	=23	=23
*	*	*	*tremolo	*	*	*	*	*	*	*	*	*	*	*	*	*	*	*	*	*	*	*	*	*
4D\	.	.	8F/L	8A/L	.	1ryy	1r	.	1r	.	1r	.	.	1r	.	.	4d/	.	4dd\	.	4d/	.	4f/	.
.	.	.	8A/	8d/	.	.	.	.	.	.	.	.	.	.	.	.	.	.	.	.	.	.	.	.
4D\	.	.	8F/	8A/	.	.	.	.	.	.	.	.	.	.	.	.	4d/	.	4dd\	.	4d/	.	4f/	.
.	.	.	8A/J	8d/J	.	.	.	.	.	.	.	.	.	.	.	.	.	.	.	.	.	.	.	.
*	*	*	*Xtremolo	*	*	*	*	*	*	*	*	*	*	*	*	*	*	*	*	*	*	*	*	*
4D\	.	.	4F/	4A/	.	.	.	.	.	.	.	.	.	.	.	.	4d/	.	4dd\	.	4d/	.	4f/	.
4r	.	.	4r	4r	.	.	.	.	.	.	.	.	.	.	.	.	4r	.	4r	.	4r	.	4r	.
==	==	==	==	==	==	==	==	==	==	==	==	==	==	==	==	==	==	==	==	==	==	==	==	==
*-	*-	*-	*-	*-	*-	*-	*-	*-	*-	*-	*-	*-	*-	*-	*-	*-	*-	*-	*-	*-	*-	*-	*-	*-
!!!system-decoration: [(s1,s2)][(s3,s4)][(s5,s6,s7,s8)][(s9,s10,s11)][(s12)]
!!!AIN: 1 alto 1 bass 4 empty 2 oboe 1 organ 1 tenor 1 violn 1 vox
!!!ENC: Andrzej Gręziak
!!!END: 2021-12-08
!!!ENC: Leszek Kubiak
!!!END: 2021-12-13
